web/packages/design/src/ResourceIcon/assets/onehundredonedomain.svg

<svg width="72" height="72" viewBox="0 0 72 72" fill="none" xmlns="http://www.w3.org/2000/svg">
<path d="M68.5244 10.7871H56.2091L55.788 12.05L55.4722 12.8923C54.8408 14.8922 54.8408 14.8922 51.2617 15.6291L49.9988 15.9448L49.6831 17.629C48.525 14.471 41.8941 11.1028 41.8941 11.1028L41.9995 11.2082C40.1045 10.261 37.9998 9.83984 35.8946 9.83984C33.1578 9.83984 30.4211 10.5767 28.0001 11.9451C26.5264 12.7874 25.3688 13.945 24.3162 15.2084L20.948 10.7876V10.6822L8.7377 10.7876L8.31655 11.9456L8.00081 12.8928C7.36934 14.8927 7.36934 14.8927 3.79032 15.6296L2.52737 15.9454L0.737863 26.682L4.10605 30.0503L0.316712 56.05L0.000976562 58.0498L3.6849 62.155H16.8424L18.4211 51.8394C18.7369 52.5763 19.0526 53.4181 19.4737 54.0501C19.6841 54.3658 19.8949 54.6816 20.1052 54.8924C20.1052 54.9978 20.2106 55.1027 20.2106 55.1027C21.6844 56.7869 23.2631 58.3661 24.8423 59.8394C25.8949 60.4708 26.9475 60.9974 28.1056 61.3132C29.2636 61.7343 30.4211 61.9446 31.6846 62.0501C34.1056 62.1555 36.4211 61.9446 38.8421 61.3132C42.526 60.3659 45.4736 57.7341 46.8419 54.1555C47.6842 52.2606 48.6315 45.8398 48.6315 45.8398L50.5264 33.2087L50.9475 30.0508L51.6844 30.7877L47.6848 57.8395L51.8952 62.0501H65.1582L72 15.6301L68.5244 10.7871Z" fill="#92864F"/>
<path d="M10.6319 13.4189L10.4216 13.7346C9.47436 16.5768 9.05321 17.1029 4.84271 18.1555L3.8955 24.1556H7.79026L3.05371 55.4179H11.4747L17.8953 13.3135L10.6319 13.4189Z" fill="#FECD27"/>
<path d="M12.8426 56.8918H1.36914L6.00078 25.5241H2.10603L3.5798 16.7872L4.10586 16.6818C8.21093 15.7346 8.31635 15.6292 9.15815 13.2082L9.47388 12.2609L9.6842 11.7349H19.8942L12.8426 56.8918ZM3.05323 55.418H11.4742L17.8949 13.3136L10.5265 13.419L10.4211 13.7347C9.47388 16.5769 9.05273 17.103 4.84223 18.1556L3.89503 24.1557H7.78978L3.05323 55.418Z" fill="white"/>
<path d="M29.9991 57.628C27.9993 57.7334 25.9994 57.4176 24.1045 56.6807C22.5258 56.0493 21.2624 54.9966 20.5255 53.5228C19.7886 52.1545 19.2625 50.7861 19.0517 49.2074C18.9463 46.8918 19.0517 44.5757 19.4729 42.2601L21.6835 27.1025C22.1047 23.9446 22.8416 20.8921 23.9991 17.945C24.9463 15.8397 26.6304 13.9453 28.6307 12.7872C30.8414 11.5243 33.3673 10.7874 35.8937 10.8928C37.8935 10.8928 39.8933 11.3139 41.7883 12.2612C43.262 12.9981 44.525 14.1561 45.3673 15.6294C46.1042 16.9978 46.5253 18.4716 46.5253 20.0503C46.5253 22.4713 46.315 24.9977 45.8939 27.4187L43.7886 41.9448C43.4729 44.4713 42.9463 46.8923 42.2099 49.3133C41.5784 50.9974 40.6312 52.4712 39.4732 53.7342C38.3152 55.1025 36.8419 56.0498 35.1578 56.7867C33.5781 57.4176 31.894 57.7334 29.9991 57.628ZM35.9991 12.471C33.6835 12.471 31.4729 12.997 29.473 14.1551C27.6835 15.2077 26.3152 16.7864 25.3679 18.576C24.2099 21.4181 23.4735 24.3652 23.1573 27.3128L20.9466 42.5758C20.5255 44.6811 20.4206 46.8913 20.5255 49.102C20.7358 50.4703 21.1569 51.7333 21.7884 52.8913C22.4199 54.0494 23.4725 54.8912 24.6306 55.4178C26.3146 56.0493 28.2096 56.365 29.9986 56.2601C31.5773 56.2601 33.1564 55.9443 34.6302 55.4178C36.104 54.8912 37.3669 53.944 38.4196 52.7864C39.4722 51.6284 40.3145 50.26 40.8405 48.7867C41.5774 46.4711 42.1035 44.155 42.3143 41.734L44.4196 27.2079C44.8407 24.8923 45.051 22.5762 45.1565 20.1552C45.1565 18.8922 44.7353 17.5238 44.2092 16.4712C43.4724 15.3132 42.4197 14.3659 41.2622 13.7345C39.5776 12.8921 37.7881 12.471 35.9991 12.471Z" fill="white"/>
<path d="M45.1566 20.1555C45.1566 18.8925 44.7354 17.5241 44.2094 16.4715C43.4725 15.3134 42.4198 14.3662 41.2623 13.7347C39.6836 12.8924 37.8941 12.5767 36.1046 12.5767C33.789 12.5767 31.5784 13.1027 29.5786 14.2608C27.789 15.3134 26.4207 16.8921 25.4735 18.6817C24.3154 21.5238 23.5791 24.4709 23.2628 27.4185L20.9472 42.5761C20.5261 44.6813 20.4212 46.8915 20.5261 49.1022C20.7364 50.4706 21.1576 51.7336 21.789 52.8916C22.4205 54.0497 23.4731 54.8915 24.6312 55.418C26.3153 56.0495 28.2102 56.3653 29.9992 56.2604C31.5779 56.2604 33.1571 55.9446 34.6308 55.418C36.1046 54.8915 37.3676 53.9442 38.4202 52.7867C39.4728 51.6286 40.3151 50.2603 40.8412 48.787C41.5781 46.4714 42.1041 44.1553 42.3149 41.7343L44.4202 27.2082C44.9462 24.8921 45.1566 22.4711 45.1566 20.1555ZM37.5779 19.4185C37.4725 20.9972 37.2621 22.471 36.9464 23.9448L33.4728 45.5231C33.2625 46.9969 32.9467 48.4702 32.6305 49.8386C31.999 51.7336 30.841 52.0493 30.2095 52.0493C29.578 52.0493 29.0515 51.839 28.6308 51.4178C28.1048 50.8918 27.894 50.1549 27.894 49.418C27.9994 47.8393 28.2097 46.1546 28.5254 44.5759L31.999 23.4183C32.2094 21.9445 32.5251 20.3658 32.8413 18.892C33.4728 16.8921 34.6308 16.6813 35.2623 16.6813C35.8938 16.6813 36.4204 16.8916 36.841 17.3128C37.4725 17.8399 37.6833 18.5767 37.5779 19.4185Z" fill="#FECD27"/>
<path d="M36.947 17.2086C36.5259 16.7875 35.9998 16.5771 35.3684 16.5771C34.7369 16.5771 33.4739 16.8929 32.9474 18.7878C32.5262 20.2616 32.3159 21.8403 32.1051 23.3141L28.6315 44.5767C28.3157 46.1554 28.1054 47.84 28 49.4187C28 50.1556 28.2103 50.8925 28.7369 51.4186C29.158 51.8397 29.6841 52.0501 30.3156 52.0501C30.947 52.0501 32.2105 51.7343 32.7366 49.8394C33.1577 48.471 33.368 46.9972 33.5789 45.5239L37.0525 23.9456C37.3682 22.4718 37.5785 20.8931 37.6839 19.4193C37.6839 18.577 37.4731 17.8401 36.947 17.2086ZM35.4733 23.7348L31.9997 45.3131C31.6839 47.4184 31.3682 48.7867 31.1574 49.4182C31.0519 49.734 30.8416 50.5763 30.1047 50.5763C29.8944 50.5763 29.789 50.4709 29.5787 50.3659C29.4733 50.1556 29.3684 49.7345 29.3684 49.4187C29.4738 47.84 29.6841 46.3662 29.9998 44.787L33.4734 23.5245C33.6838 22.0507 33.9995 20.5774 34.3157 19.209C34.4212 18.8933 34.6315 18.0509 35.3684 18.0509C35.5787 18.0509 35.6841 18.1564 35.8944 18.2613C36.1047 18.577 36.2102 18.8927 36.1047 19.3139C36.1047 19.9454 35.8944 21.4187 35.4733 23.7348Z" fill="white"/>
<path d="M58.1031 13.4189L57.9977 13.8401C57.0505 16.6823 56.524 17.2083 52.4189 18.261L51.4717 24.261H55.3664L50.6299 55.5234H59.0509L65.4715 13.4189H58.1031Z" fill="#FECD27"/>
<path d="M60.3143 56.8918H48.8408L53.5774 25.5241H49.5777L51.0515 16.7872L51.5775 16.6818C55.6826 15.7346 55.788 15.6292 56.6298 13.2082L56.9456 12.2609L57.1559 11.7349H67.3659L60.3143 56.8918ZM50.6303 55.418H59.0513L65.472 13.3136L58.1036 13.419L57.9982 13.8401C57.051 16.6823 56.6298 17.2084 52.4193 18.261L51.4721 24.2611H55.3669L50.6303 55.418Z" fill="white"/>
</svg>

<svg xmlns="http://www.w3.org/2000/svg" width="72" height="72" fill="none" viewBox="0 0 72 72"><path fill="#92864f" d="M68.524 10.787H56.21l-.421 1.263-.316.842c-.631 2-.631 2-4.21 2.737L50 15.945l-.316 1.684c-1.158-3.158-7.789-6.526-7.789-6.526l.105.105c-1.895-.947-4-1.368-6.104-1.368-2.737 0-5.474.737-7.895 2.105-1.474.842-2.631 2-3.684 3.263l-3.368-4.42v-.106l-12.21.106-.421 1.158-.316.947c-.632 2-.632 2-4.21 2.737l-1.264.315-1.79 10.737 3.369 3.368-3.79 26-.315 2 3.684 4.105h13.157l1.58-10.316c.315.737.63 1.58 1.052 2.211.21.316.42.632.631.842 0 .106.106.21.106.21 1.473 1.685 3.052 3.264 4.631 4.737 1.053.632 2.106 1.158 3.264 1.474 1.158.421 2.315.632 3.579.737 2.42.106 4.736-.105 7.157-.737 3.684-.947 6.632-3.579 8-7.157.842-1.895 1.79-8.316 1.79-8.316l1.894-12.631.421-3.158.737.737-4 27.052 4.211 4.21h13.263L72 15.63z"/><path fill="#fecd27" d="m10.632 13.419-.21.316c-.948 2.842-1.369 3.368-5.58 4.42l-.946 6H7.79L3.054 55.419h8.42l6.421-42.104z"/><path fill="#fff" d="M12.843 56.892H1.369l4.632-31.368H2.106l1.474-8.737.526-.105c4.105-.947 4.21-1.053 5.052-3.474l.316-.947.21-.526h10.21zm-9.79-1.474h8.421l6.42-42.104-7.367.105-.106.316c-.947 2.842-1.368 3.368-5.579 4.42l-.947 6H7.79zM30 57.628c-2 .105-4-.21-5.895-.947-1.58-.632-2.843-1.684-3.58-3.158-.736-1.369-1.262-2.737-1.473-4.316-.106-2.315 0-4.631.42-6.947l2.211-15.157c.422-3.158 1.159-6.21 2.316-9.158.947-2.105 2.631-4 4.632-5.158 2.21-1.263 4.736-2 7.263-1.894 2 0 4 .42 5.894 1.368a8.5 8.5 0 0 1 3.58 3.368c.736 1.369 1.157 2.843 1.157 4.421 0 2.421-.21 4.948-.631 7.369l-2.105 14.526a44 44 0 0 1-1.58 7.368 13.6 13.6 0 0 1-2.736 4.421c-1.158 1.368-2.631 2.316-4.315 3.053a11.85 11.85 0 0 1-5.159.841m6-45.157c-2.316 0-4.527.526-6.527 1.684-1.79 1.053-3.158 2.631-4.105 4.421a32.3 32.3 0 0 0-2.21 8.737l-2.211 15.263c-.421 2.105-.526 4.315-.421 6.526q.314 2.052 1.262 3.79c.632 1.157 1.685 2 2.843 2.526 1.684.631 3.579.947 5.368.842 1.578 0 3.157-.316 4.631-.842 1.474-.527 2.737-1.474 3.79-2.632a12 12 0 0 0 2.42-4c.737-2.315 1.263-4.631 1.474-7.052l2.106-14.526c.42-2.316.631-4.632.736-7.053 0-1.263-.42-2.631-.947-3.684a8.15 8.15 0 0 0-2.947-2.736A11.7 11.7 0 0 0 36 12.47"/><path fill="#fecd27" d="M45.157 20.156c0-1.264-.422-2.632-.948-3.684a8.15 8.15 0 0 0-2.947-2.737c-1.578-.843-3.368-1.158-5.157-1.158-2.316 0-4.527.526-6.526 1.684-1.79 1.052-3.158 2.631-4.105 4.42a32.3 32.3 0 0 0-2.211 8.738l-2.316 15.157c-.42 2.105-.526 4.316-.42 6.526q.315 2.053 1.262 3.79c.631 1.158 1.684 2 2.842 2.526 1.684.632 3.58.947 5.368.842 1.579 0 3.158-.315 4.632-.842s2.737-1.474 3.79-2.631a12 12 0 0 0 2.42-4c.737-2.316 1.263-4.632 1.474-7.053l2.105-14.526c.526-2.316.737-4.737.737-7.052m-7.58-.737a31 31 0 0 1-.63 4.526l-3.474 21.578c-.21 1.474-.526 2.947-.843 4.316-.631 1.895-1.789 2.21-2.42 2.21q-.948 0-1.58-.631c-.525-.526-.736-1.263-.736-2 .105-1.579.316-3.263.631-4.842L32 23.418c.21-1.473.526-3.052.842-4.526.632-2 1.79-2.21 2.421-2.21q.948 0 1.579.63c.631.528.842 1.265.737 2.107"/><path fill="#fff" d="M36.947 17.209q-.631-.632-1.579-.632c-.631 0-1.894.316-2.42 2.21-.422 1.475-.632 3.053-.843 4.527l-3.473 21.263A38 38 0 0 0 28 49.419c0 .737.21 1.474.737 2q.631.63 1.579.631c.631 0 1.895-.316 2.42-2.21.422-1.369.632-2.843.843-4.316l3.474-21.578c.315-1.474.526-3.053.63-4.527 0-.842-.21-1.579-.736-2.21m-1.474 6.526L32 45.313c-.316 2.105-.632 3.474-.843 4.105-.105.316-.315 1.158-1.052 1.158-.21 0-.316-.105-.526-.21a2.5 2.5 0 0 1-.21-.947c.105-1.579.315-3.053.63-4.632l3.474-21.262c.21-1.474.526-2.948.843-4.316.105-.316.316-1.158 1.052-1.158.21 0 .316.105.526.21.21.316.316.632.21 1.053q0 .947-.63 4.42"/><path fill="#fecd27" d="m58.103 13.419-.105.421c-.947 2.842-1.474 3.368-5.58 4.421l-.946 6h3.894L50.63 55.523h8.42l6.422-42.104z"/><path fill="#fff" d="M60.314 56.892H48.841l4.736-31.368h-4l1.474-8.737.526-.105c4.106-.947 4.211-1.053 5.053-3.474l.316-.947.21-.526h10.21zm-9.684-1.474h8.421l6.421-42.104-7.368.105-.106.421c-.947 2.842-1.368 3.368-5.579 4.421l-.947 6h3.895z"/></svg>
